X:71
T:Anglais efter Jöns Persson
T:(SvL Skåne nr. 71)
R:Anglais
Z:Patrik Månsson, 2009-01-12
O:Roalöv, Skåne
S:efter Jöns Persson
S:Svenska Låtar Skåne
B:Svenska Låtar Skåne
N:Jämför med Surgeon's Call
M:2/4
L:1/16
K:F
|: f2(Ac) fagf | g2(ce) gbag | a2(^ce) agfe | (d^c)ec d4 :|
|: F2GA Bcde | f2c2 a4 | gaba gfed | c2de f4 :|

